X: 21470
T: Kevin McHugh's
R: jig
M: 6/8
K: Gmajor
|:B2 d ded|BAB G2B|AGE DEG|AGE DGA|
B2 d ded|BAB G2B|AGE DEG|ABA G2A:|
|:B2 G GAB|c2c ABc|BAB GAB|ABc d2 c|
BAB GAB|cdc BcB|AGE DEG|ABA G3:|

